modules/hawcons-filled/icons/icon-54-file-mid.svg

<?xml version="1.0" encoding="UTF-8" standalone="no"?>
<svg width="32px" height="32px" viewBox="0 0 32 32" version="1.1" xmlns="http://www.w3.org/2000/svg" xmlns:xlink="http://www.w3.org/1999/xlink" xmlns:sketch="http://www.bohemiancoding.com/sketch/ns">
    <!-- Generator: Sketch 3.0.3 (7891) - http://www.bohemiancoding.com/sketch -->
    <title>icon 54 file mid</title>
    <desc>Created with Sketch.</desc>
    <defs></defs>
    <g id="Page-1" stroke="none" stroke-width="1" fill="none" fill-rule="evenodd" sketch:type="MSPage">
        <g id="icon-54-file-mid" sketch:type="MSArtboardGroup" fill="#929292">
            <path d="M8.00684834,10 C6.34621185,10 5,11.3422643 5,12.9987856 L5,20.0012144 C5,21.6573979 6.33599155,23 8.00684834,23 L24.9931517,23 C26.6537881,23 28,21.6577357 28,20.0012144 L28,12.9987856 C28,11.3426021 26.6640085,10 24.9931517,10 L8.00684834,10 L8.00684834,10 Z M11.5,16 L10,13 L9.5,13 L9,13 L9,20 L10,20 L10,15 L11,17 L11.5,17 L12,17 L13,15 L13,20 L14,20 L14,13 L13.5,13 L13,13 L11.5,16 L11.5,16 Z M16,14 L16,19 L15,19 L15,20 L18,20 L18,19 L17,19 L17,14 L18,14 L18,13 L15,13 L15,14 L16,14 L16,14 Z M19,13 L19,20 L21.9951185,20 C23.102384,20 24,19.1134452 24,17.9940809 L24,15.0059191 C24,13.8980806 23.1061002,13 21.9951185,13 L19,13 L19,13 Z M20,14 L20,19 L22.0010434,19 C22.5527519,19 23,18.5562834 23,18.0001925 L23,14.9998075 C23,14.4476291 22.5573397,14 22.0010434,14 L20,14 L20,14 Z" id="file-mid" sketch:type="MSShapeGroup"></path>
        </g>
    </g>
</svg>

<svg width="32" height="32" xmlns="http://www.w3.org/2000/svg"><path d="M8.007 10A3.003 3.003 0 0 0 5 12.999V20A2.996 2.996 0 0 0 8.007 23h16.986A3.003 3.003 0 0 0 28 20.001V13A2.996 2.996 0 0 0 24.993 10H8.007zm3.493 6L10 13H9v7h1v-5l1 2h1l1-2v5h1v-7h-1l-1.5 3zm4.5-2v5h-1v1h3v-1h-1v-5h1v-1h-3v1h1zm3-1v7h2.995A1.998 1.998 0 0 0 24 17.994v-2.988A2.003 2.003 0 0 0 21.995 13H19zm1 1v5h2.001A.997.997 0 0 0 23 18v-3c0-.552-.443-1-.999-1H20z" fill="#929292" fill-rule="evenodd"/></svg>
